icon-svg/chevrolet.svg

<svg xmlns="http://www.w3.org/2000/svg" viewBox="0 0 24 24"><path fill="#44739e" d="M15.202 13.581h-1.32a.393.393 0 0 0-.448.447v1.971a.4.4 0 0 0 .448.449h1.32a.4.4 0 0 0 .446-.449v-1.971a.394.394 0 0 0-.446-.447m-.37 2.43h-.58c-.173 0-.22-.046-.22-.219v-1.555c0-.15.021-.219.22-.219h.58c.157 0 .219.027.219.219v1.555c-.001.185-.057.219-.22.219Zm3.608-.219v-.626h1.191v-.438h-1.19v-.491c0-.166.037-.219.219-.219h.984v-.438H18.29a.393.393 0 0 0-.448.447v1.972a.394.394 0 0 0 .448.449h1.48v-.44h-1.11c-.167.003-.22-.034-.22-.216m-1.83-2.212h-.599v2.871h1.714v-.439H16.61Zm3.164 0v.438h.813v2.433h.599v-2.433H22v-.438Zm-7.12 1.657a.4.4 0 0 0 .448-.449v-.76a.393.393 0 0 0-.448-.448h-1.67v2.871h.6v-2.433h.7c.185 0 .219.053.219.219v.349c0 .17-.046.22-.219.22h-.327a.184.184 0 0 0-.2.2.3.3 0 0 0 .057.152l.756 1.292h.742l-.793-1.213ZM9.718 10.8c.1 0 .135.045.135.136v.473a.187.187 0 0 0 .207.208h3.653a.185.185 0 0 0 .207-.206v-.473c0-.1.042-.136.135-.136h2.03a.31.31 0 0 0 .311-.167l1.005-1.97a.2.2 0 0 0 .038-.117.18.18 0 0 0-.194-.181h-3.19c-.082 0-.135-.024-.135-.136v-.473a.187.187 0 0 0-.207-.209h-3.652a.187.187 0 0 0-.207.208v.473c0 .1-.048.136-.135.136H7.627a.31.31 0 0 0-.3.176l-1.023 1.991a.2.2 0 0 0-.021.084.18.18 0 0 0 .193.181Zm-2.433-.793.485-.948c.019-.036.049-.058.123-.058h2.456c.084 0 .137-.034.137-.137v-.547c0-.1.042-.136.136-.136h2.53c.091 0 .136.04.136.137v.546c0 .094.043.136.137.136h2.906a.11.11 0 0 1 .123.109.1.1 0 0 1-.013.051l-.485.948a.13.13 0 0 1-.123.058h-2.408c-.1 0-.137.045-.137.136v.546c0 .091-.04.134-.137.134h-2.529c-.085 0-.137-.029-.137-.135V10.3c0-.1-.046-.136-.136-.136H7.395a.11.11 0 0 1-.123-.109.1.1 0 0 1 .013-.05Zm-1.806 4.721H4.62V13.58h-.599v2.871h.599v-1.285h.859v1.285h.6V13.58h-.6Zm4.276 1.245c-.009.03-.031.038-.062.038a.06.06 0 0 1-.063-.039l-.627-2.392h-.7l.725 2.619a.29.29 0 0 0 .312.252h.553a.294.294 0 0 0 .31-.252l.699-2.619h-.528Zm-2.718-.181v-.626h1.191v-.438h-1.19v-.491c0-.166.037-.219.22-.219h.983v-.438H6.886a.394.394 0 0 0-.447.447v1.972a.394.394 0 0 0 .446.449h1.48v-.44H7.256c-.166.003-.219-.034-.219-.216m-5.032-1.764v1.971a.394.394 0 0 0 .447.449h1.34v-.44h-.97c-.166 0-.219-.04-.219-.219v-1.552c0-.173.04-.219.219-.219h.969v-.438H2.453a.4.4 0 0 0-.448.448"/></svg>

<?xml version="1.0" encoding="UTF-8"?>
<svg width="24px" fill="#44739e" height="24px" viewBox="0 0 24 24" version="1.1" xmlns="http://www.w3.org/2000/svg" xmlns:xlink="http://www.w3.org/1999/xlink">
            <path d="m 15.2,13.581 h -1.32 a 0.393,0.393 0 0 0 -0.448,0.448 V 16 a 0.4,0.4 0 0 0 0.448,0.449 H 15.2 A 0.4,0.4 0 0 0 15.647,16 V 14.029 A 0.394,0.394 0 0 0 15.2,13.581 Z m -0.37,2.431 h -0.58 c -0.173,0 -0.22,-0.046 -0.22,-0.219 v -1.555 c 0,-0.15 0.021,-0.219 0.22,-0.219 h 0.58 c 0.157,0 0.219,0.027 0.219,0.219 v 1.555 c -10e-4,0.185 -0.057,0.219 -0.22,0.219 z m 1.779,-2.432 v 0 z m 1.83,2.213 v -0.626 h 1.191 v -0.438 h -1.19 v -0.491 c 0,-0.166 0.037,-0.219 0.219,-0.219 h 0.984 V 13.58 h -1.354 a 0.393,0.393 0 0 0 -0.448,0.448 V 16 a 0.394,0.394 0 0 0 0.448,0.449 h 1.48 v -0.44 h -1.11 c -0.167,0.003 -0.22,-0.034 -0.22,-0.216 z M 16.609,13.58 H 16.01 v 2.872 h 1.714 v -0.439 h -1.115 z m 3.164,0 v 0 0.439 h 0.814 v 2.433 h 0.599 V 14.019 H 22 V 13.58 Z m -7.121,1.658 v 0 A 0.4,0.4 0 0 0 13.1,14.789 v -0.76 A 0.393,0.393 0 0 0 12.652,13.58 h -1.67 v 2.872 h 0.6 v -2.433 h 0.7 c 0.185,0 0.219,0.053 0.219,0.219 v 0.349 c 0,0.17 -0.046,0.22 -0.219,0.22 h -0.327 a 0.184,0.184 0 0 0 -0.2,0.2 0.3,0.3 0 0 0 0.057,0.152 l 0.756,1.292 H 13.31 L 12.517,15.238 Z M 9.715,10.8 c 0.1,0 0.135,0.045 0.135,0.136 v 0.473 a 0.187,0.187 0 0 0 0.207,0.208 h 3.654 a 0.185,0.185 0 0 0 0.207,-0.206 v -0.473 c 0,-0.1 0.042,-0.136 0.135,-0.136 h 2.031 a 0.309,0.309 0 0 0 0.311,-0.167 L 17.4,8.664 A 0.214,0.214 0 0 0 17.438,8.547 0.182,0.182 0 0 0 17.244,8.366 h -3.191 c -0.082,0 -0.135,-0.024 -0.135,-0.136 V 7.757 A 0.187,0.187 0 0 0 13.711,7.548 H 10.058 A 0.187,0.187 0 0 0 9.851,7.756 v 0.473 c 0,0.1 -0.048,0.136 -0.135,0.136 H 7.624 a 0.311,0.311 0 0 0 -0.3,0.176 L 6.3,10.533 a 0.19,0.19 0 0 0 -0.021,0.084 0.179,0.179 0 0 0 0.194,0.181 z M 7.282,10.007 7.767,9.058 C 7.786,9.022 7.816,9 7.89,9 h 2.456 C 10.43,9 10.483,8.966 10.483,8.863 V 8.316 c 0,-0.1 0.042,-0.136 0.136,-0.136 h 2.531 c 0.091,0 0.136,0.04 0.136,0.137 v 0.546 c 0,0.094 0.043,0.136 0.137,0.136 h 2.907 a 0.109,0.109 0 0 1 0.123,0.109 0.114,0.114 0 0 1 -0.013,0.051 v 0 l -0.485,0.949 a 0.126,0.126 0 0 1 -0.123,0.058 h -2.409 c -0.1,0 -0.137,0.045 -0.137,0.136 v 0.546 c 0,0.091 -0.04,0.134 -0.137,0.134 h -2.53 c -0.085,0 -0.137,-0.029 -0.137,-0.135 V 10.3 c 0,-0.1 -0.046,-0.136 -0.136,-0.136 H 7.392 A 0.112,0.112 0 0 1 7.269,10.055 0.11,0.11 0 0 1 7.282,10.005 Z M 5.475,14.729 H 4.616 V 13.58 H 4.017 v 2.872 h 0.599 v -1.285 h 0.859 v 1.285 h 0.6 V 13.58 h -0.6 z m 4.277,1.245 v 0 C 9.743,16.004 9.721,16.012 9.69,16.012 A 0.059,0.059 0 0 1 9.627,15.973 L 9,13.58 H 8.3 l 0.725,2.62 a 0.291,0.291 0 0 0 0.312,0.252 H 9.89 A 0.294,0.294 0 0 0 10.2,16.2 l 0.7,-2.62 H 10.371 Z M 7.034,15.793 v -0.626 h 1.191 v -0.438 h -1.19 v -0.491 c 0,-0.166 0.037,-0.219 0.22,-0.219 H 8.238 V 13.58 H 6.883 A 0.394,0.394 0 0 0 6.435,14.028 V 16 a 0.394,0.394 0 0 0 0.447,0.449 h 1.48 v -0.44 H 7.253 C 7.087,16.012 7.034,15.975 7.034,15.793 Z M 2,14.029 v 0 V 16 a 0.394,0.394 0 0 0 0.448,0.449 h 1.34 v -0.44 h -0.97 c -0.166,0 -0.219,-0.04 -0.219,-0.219 v -1.552 c 0,-0.173 0.04,-0.219 0.219,-0.219 H 3.787 V 13.58 H 2.449 A 0.4,0.4 0 0 0 2,14.029 Z"/>

</svg>
